X:316
T: My Valentine
N: O'Farrell's Pocket Companion v.4 (Sky ed. p.140)
N: "Irish"
M: 6/4
R: waltz
L: 1/8
Q: 180
K: Dm
A| A4Bc d4 e2| f2 gfed e2 cAA>e| f4 ag e4 ag/e/|
d4 A/B/c/d/ ed d>ef>e| dc AG AB c4 ed| dc AB cA G2 ED/E/ D>E|
F4AG E4 AG/E/| d4 A/B/c/d/ ed d3 :|
